X:112
T:Nightingale, The
R:jig
C:Sean Ryan
Z:Transcribed by Dave Marshall
M:6/8
K:Ador
|: EAA A2B | cAB cAG | ~E3 ~G3 | G,B,D GFG |
EAA A2B | cAB cde | ~g3 ege | dBG A3 :|
| aea aea | gdg gfg | aea aef | gfe deg |
aea aea | gdg gfg | ege dBG | BAG A3 |
aea aea | gdg gfg | aea aef | gfe def |
~g3 fed | edB GBd | ~g3 ege | dBG A3 |
